static/logo_transparent.svg

<svg xmlns="http://www.w3.org/2000/svg" width="1200" height="1200"><path d="M582 557v8c-6.502 0-15.553-1.341-18 6-.886 2.657 0 7.174 0 10h72c0-2.826.886-7.343 0-10-2.379-7.137-11.582-6-18-6v-8h36c3.573 0 10.319 1.145 13-1 4.128-3.302 2-15.813 2-21v-57c0-5.039 2.022-16.783-2-20-2.065-1.652-6.235-1-9-1h-23-70-21c-2.543 0-6.609-.797-9 0-6.503 2.168-4 15.975-4 22v56c0 4.907-1.942 16.322 1 20 2.562 3.202 9.066 2 13 2h37m81-93v68H537v-68h126m0 75v11H537v-11h126m-15 2v7h6v-7h-6m-36 16v8h-24v-8h24m-372 5v16h270v-16H240m450 0v16h270v-16H690m-60 11c-2.29 2.29-11.783 1-16 1h-44c2.062-3.436 9.647-2 14-2h32c4.474 0 10.233-.883 14 1m-310 58c0 1.81.437 4.253 0 6-.327 1.306-2.08 4.2-1 6 1.85 3.084 7.133 2.1 8 6-.033-.149-1 2.35-1 3 0 2.278 1 4.159 1 7h-1c0 2.61.509 1.543 1 4l-1 1c0 2.278 1 4.159 1 7h-1l1 2h-1l1 2h-1c0 3.544.314 4.572 1 8h-1l1 2h-1c0 3.544.314 4.572 1 8h-1l1 2h-1c0 3.544.314 4.572 1 8h-1c0 1.721 1.342 2.634 1 4-.532 2.128-6.528 2.547-8 5-.995 1.658.713 3.851 1 5 .51 2.04 0 4.887 0 7h33l1-12c-1.924-.962-6.97-2.734-8-5-.692-1.523 1-2.077 1-3 0-1.471-1-1.529-1-3l1-2-1-1c.826-5.784 0-9.468 0-16h30v18c0 1.621.756 5.615 0 7-1.275 2.338-5.901 3.951-8 5 0 1.896.372 10.915 2 12 1.32.88 6.344 0 8 0h24c0-1.81-.437-4.252 0-6 .327-1.306 2.08-4.199 1-6-1.684-2.807-7.547-1.92-8-6h1c.628-3.771-1-4.598-1-8h1c.283-1.696-1-2.97-1-4 0 .49 1.113-1.866 1-3-.379-3.787.595-8.215-1-13h1c.283-1.696-1-2.97-1-4h1c.211-1.269-1.071-3.573-1-4h1c.211-1.269-1.071-3.573-1-4h1c.608-1.825-.557-2.671-1-4h1c.283-1.696-1-2.97-1-4h1c.211-1.269-1.071-3.573-1-4 .004-.023 1.105-4.628 1-4 .12-.719-.367-2.388 0-3 1.222-2.037 5.773-2.159 7-4 1.13-1.695-.695-4.781-1-6-.437-1.748 0-4.19 0-6h-33c0 2.463.532 5.605 0 8-.244 1.097-1.658 1.421-1 3 1.498 3.594 6.291 2.866 8 6 .536.983 0 3.851 0 5 0 3.726 1.706 12.979-2 15-.983.536-3.851 0-5 0h-12c-3.942 0-7.591.136-11-1 1.228-3.685 0-7.373 0-11 0-3.457 1.177-5.469 0-9 2.42-.807 6.598-2.197 8-5 .824-1.647-.752-2.883-1-4-.466-2.095 0-4.846 0-7h-33m173 0c0 1.81.437 4.253 0 6-.327 1.306-2.08 4.2-1 6 1.85 3.084 7.133 2.1 8 6-.033-.149-1 2.35-1 3 0 2.278 1 4.159 1 7h-1c0 2.61.509 1.543 1 4l-1 1c0 2.278 1 4.159 1 7h-1l1 2h-1l1 2h-1c0 3.544.314 4.572 1 8h-1l1 2h-1c0 3.544.314 4.572 1 8h-1l1 2h-1c0 3.544.314 4.572 1 8h-1c0 1.721 1.342 2.634 1 4-.532 2.128-6.528 2.547-8 5-.995 1.658.713 3.851 1 5 .51 2.04 0 4.887 0 7h27c2.072 0 8.348 1.102 10 0 1.701-1.134 1-4.172 1-6 0-1.473 1.286-4.143 1-5-1.46-4.381-9.708-4.903-13-6 1.273-3.82 1.273-11.18 0-15 13.246 0 25.871.419 37-7 10.397-6.931 12.789-20.843 10-32-1.513-6.051-1.9-11.933-8-16-4.839-3.226-10.341-3.585-16-5-14.485-3.621-33.57-1-49-1m158 0v20c2.875 0 8.359 1.641 10 0 1.271-1.271.818-3.81 3-5 2.976-1.623 11.518 0 15 0v44 12c0 1.149.536 4.018 0 5-1.58 2.897-5.42 2.103-7 5-1.576 2.889.571 9.424 1 12h32c0-6.359 3.996-15-6-15v-63h11c.857 0 3.288-.427 4 0 2.066 1.24 1.347 5.035 4 6l2-1c2.086-.298 5.661 1.008 7-1 .545-.817 0-3.976 0-5v-14h-76m155 93h32c0-7.781 3.018-13.497-6-15 4.159-8.318 6.857-18.286 12-26 2.995 8.984 9.438 17.627 11 27-7.812 1.302-4 7.762-4 14h15 12c1.023 0 4.183.545 5 0 1.137-.758 2.257-9.844 2-11-.13-.584-2.482-2.654-3-3-1.267-.845-3.822-1.058-5-2-2.562-2.049-3.648-6.297-5-9-2.75-5.501-6.276-10.552-9-16-.816-1.631-5.179-6.389-5-8l2-1c.848-1.979 1.859-3.044 3-5 3.121-5.35 6.791-10.499 10-16 1.213-2.079 1.504-4.336 4-6 1.891-1.26 6.679-2.019 8-4 1.044-1.565-.733-3.931-1-5-.51-2.04 0-4.887 0-7h-32c0 3.106-2.65 9.25-1 12 .923 1.539 4.47 2.49 6 3-2.262 6.786-9 13.521-9 21-4.484-2.69-6.608-11.217-9-16-.431-.861-3.177-4.203-3-5 .129-.58 4.437-2.061 5-3 1.65-2.75-1-8.894-1-12h-14-13c-1.024 0-4.183-.545-5 0-2.23 1.487-.66 6.617-1 9l-1 2c1.189 3.568 6.813 3.813 9 6 5.172 5.172 8.408 13.842 12 20 1.264 2.167 5.447 5.321 5 8-.251 1.504-2.252 2.654-3 4l-4 7c-3.45 5.914-5.987 13.481-10 19-2.462 3.385-7.883 2.118-10 6-1.61 2.952 1 8.744 1 12m-287-48c1.685-10.111 0-19.579 0-30 6.671 0 16.756-1.496 22 2 7.822 5.215 7.17 22.234-1 27-2.336 1.363-5.326.331-8 1-3.874.969-9.131 1.935-13 0m-65 10c-10.813 0-23.503-1.664-32 4-10.225 6.817-7.468 25.688 2 32 6.936 4.624 23.055 4.63 30 0 1.829-1.219 3.441-3.441 5-5 0 2.356-.015 6.657 2 8 .817.545 3.976 0 5 0 4.571 0 8.079-.693 12-2 1.483-.494 1.851.723 3-1 .545-.817 0-3.976 0-5 0-6.194-.102-9-7-9 0-10.816.442-25.068-1-33-.815-4.482-.521-8.282-3-12-2.893-4.34-6.712-4.928-11-6-10.054-2.514-20.219-2.26-30 1-2.718.906-8.33 1.217-10 4-1.577 2.629.433 9.733 1 12 .367 1.469-.269 4.048 1 5 1.164.873 6.462 0 8 0 1.148 0 5.131.652 6 0 2.667-2-.549-6.742 3-9 4.941-3.144 14.199.596 16 6 .886 2.657 0 7.174 0 10m337 20c-7.813 1.302-13.645 5.089-22 3-2.919-.73-5.835-.594-8-3-2.729-3.032-2.775-7.326-4-11h24c3.437 0 8.231.615 11-1 4.797-2.798 4-8.17 4-13 0-9.156-2.698-18.157-11-23-2.666-1.555-7.008-2.252-10-3-3.523-.881-8.049.262-11 1-5.997 1.499-10.987 2.24-16 6-9.961 7.471-12.888 24.447-10 36 .392 1.569-.392 3.431 0 5 1.212 4.849 4.057 11.451 8 15 9.095 8.185 25.502 8.833 37 5 3.249-1.083 9.031-1.39 11-5 1.578-2.893-2.17-9.51-3-12m-214-50c-.406 2.437-2.629 9.286-1 12 1.812 3.019 7.132 2.598 9 5v2c2.278 3.987 3.27 7.847 5 12 4.36 10.464 9.64 20.537 14 31 2.821 6.771 2.015 10.977-2 17-1.802 2.704-2.305 4-6 4 0-2.122.07-6.396-1-8-.931-1.397-11.417-2.055-13-1-1.723 1.149-.506 1.517-1 3-.982 2.945-4.015 10.306-2 14 1.549 2.839 5.481 3.16 8 4 9.094 3.031 20.042.944 26-7 4.827-6.437 6.977-14.745 10-22l17-40c1.098-2.635 2.72-8.176 5-10 1.945-1.556 6.571-1.618 8-4 1.759-2.932-1-8.95-1-12h-22c-1.538 0-6.836-.873-8 0-1.395 1.046-.856 4.276-1 6-.136 1.635-1.643 3.457-1 5 1.141 2.738 4.671 3.612 7 4-1.947 11.683-10 21.528-10 34-3.673-2.204-2.694-6.082-4-10-2.69-8.069-6.301-15.903-9-24 5.788-1.929 5.424-3.908 5-9-.158-1.894.812-4.792-1-6-1.32-.88-6.344 0-8 0h-23m201 26l-21 1c1.253-3.758 1.352-9.347 5-12 4.293-3.122 13.814-2.248 16 3 .795 1.907 0 5.904 0 8m-324 14c0 2.645 1.316 9.806 0 12-1.068 1.781-3.356 1.452-5 2-2.927.975-8.145 2.077-11 0-2.055-1.494-3.265-7.471-2-10 1.339-2.678 5.591-3.759 8-4l1 1c1.99-.995 5.591-1 9-1z" fill="#e9c012"/></svg>

<?xml version="1.0" standalone="yes"?>
<svg xmlns="http://www.w3.org/2000/svg" width="1200" height="1200">
<path style="fill:#e9c012; stroke:none;" d="M582 557L582 565C575.498 565 566.447 563.659 564 571C563.114 573.657 564 578.174 564 581L636 581C636 578.174 636.886 573.657 636 571C633.621 563.863 624.418 565 618 565L618 557L654 557C657.573 557 664.319 558.145 667 556C671.128 552.698 669 540.187 669 535L669 478C669 472.961 671.022 461.217 667 458C664.935 456.348 660.765 457 658 457L635 457L565 457L544 457C541.457 457 537.391 456.203 535 457C528.497 459.168 531 472.975 531 479L531 535C531 539.907 529.058 551.322 532 555C534.562 558.202 541.066 557 545 557L582 557M663 464L663 532L537 532L537 464L663 464M663 539L663 550L537 550L537 539L663 539M648 541L648 548L654 548L654 541L648 541M612 557L612 565L588 565L588 557L612 557M240 562L240 578L510 578L510 562L240 562M690 562L690 578L960 578L960 562L690 562M630 573C627.71 575.29 618.217 574 614 574L570 574C572.062 570.564 579.647 572 584 572L616 572C620.474 572 626.233 571.117 630 573M320 631C320 632.81 320.437 635.253 320 637C319.673 638.306 317.92 641.2 319 643C320.85 646.084 326.133 645.1 327 649C326.967 648.851 326 651.35 326 652C326 654.278 327 656.159 327 659L326 659C326 661.61 326.509 660.543 327 663L326 664C326 666.278 327 668.159 327 671L326 671L327 673L326 673L327 675L326 675C326 678.544 326.314 679.572 327 683L326 683L327 685L326 685C326 688.544 326.314 689.572 327 693L326 693L327 695L326 695C326 698.544 326.314 699.572 327 703L326 703C326 704.721 327.342 705.634 327 707C326.468 709.128 320.472 709.547 319 712C318.005 713.658 319.713 715.851 320 717C320.51 719.04 320 721.887 320 724L353 724L354 712C352.076 711.038 347.03 709.266 346 707C345.308 705.477 347 704.923 347 704C347 702.529 346 702.471 346 701L347 699L346 698C346.826 692.216 346 688.532 346 682L376 682L376 700C376 701.621 376.756 705.615 376 707C374.725 709.338 370.099 710.951 368 712C368 713.896 368.372 722.915 370 724C371.32 724.88 376.344 724 378 724L402 724C402 722.19 401.563 719.748 402 718C402.327 716.694 404.08 713.801 403 712C401.316 709.193 395.453 710.08 395 706L396 706C396.628 702.229 395 701.402 395 698L396 698C396.283 696.304 395 695.03 395 694C395 694.49 396.113 692.134 396 691C395.621 687.213 396.595 682.785 395 678L396 678C396.283 676.304 395 675.03 395 674L396 674C396.211 672.731 394.929 670.427 395 670L396 670C396.211 668.731 394.929 666.427 395 666L396 666C396.608 664.175 395.443 663.329 395 662L396 662C396.283 660.304 395 659.03 395 658L396 658C396.211 656.731 394.929 654.427 395 654C395.004 653.977 396.105 649.372 396 650C396.12 649.281 395.633 647.612 396 647C397.222 644.963 401.773 644.841 403 643C404.13 641.305 402.305 638.219 402 637C401.563 635.252 402 632.81 402 631L369 631C369 633.463 369.532 636.605 369 639C368.756 640.097 367.342 640.421 368 642C369.498 645.594 374.291 644.866 376 648C376.536 648.983 376 651.851 376 653C376 656.726 377.706 665.979 374 668C373.017 668.536 370.149 668 369 668L357 668C353.058 668 349.409 668.136 346 667C347.228 663.315 346 659.627 346 656C346 652.543 347.177 650.531 346 647C348.42 646.193 352.598 644.803 354 642C354.824 640.353 353.248 639.117 353 638C352.534 635.905 353 633.154 353 631L320 631M493 631C493 632.81 493.437 635.253 493 637C492.673 638.306 490.92 641.2 492 643C493.85 646.084 499.133 645.1 500 649C499.967 648.851 499 651.35 499 652C499 654.278 500 656.159 500 659L499 659C499 661.61 499.509 660.543 500 663L499 664C499 666.278 500 668.159 500 671L499 671L500 673L499 673L500 675L499 675C499 678.544 499.314 679.572 500 683L499 683L500 685L499 685C499 688.544 499.314 689.572 500 693L499 693L500 695L499 695C499 698.544 499.314 699.572 500 703L499 703C499 704.721 500.342 705.634 500 707C499.468 709.128 493.472 709.547 492 712C491.005 713.658 492.713 715.851 493 717C493.51 719.04 493 721.887 493 724L520 724C522.072 724 528.348 725.102 530 724C531.701 722.866 531 719.828 531 718C531 716.527 532.286 713.857 532 713C530.54 708.619 522.292 708.097 519 707C520.273 703.18 520.273 695.82 519 692C532.246 692 544.871 692.419 556 685C566.397 678.069 568.789 664.157 566 653C564.487 646.949 564.1 641.067 558 637C553.161 633.774 547.659 633.415 542 632C527.515 628.379 508.43 631 493 631M651 631L651 651C653.875 651 659.359 652.641 661 651C662.271 649.729 661.818 647.19 664 646C666.976 644.377 675.518 646 679 646L679 690L679 702C679 703.149 679.536 706.018 679 707C677.42 709.897 673.58 709.103 672 712C670.424 714.889 672.571 721.424 673 724L705 724C705 717.641 708.996 709 699 709L699 646L710 646C710.857 646 713.288 645.573 714 646C716.066 647.24 715.347 651.035 718 652L720 651C722.086 650.702 725.661 652.008 727 650C727.545 649.183 727 646.024 727 645L727 631L651 631M806 724L838 724C838 716.219 841.018 710.503 832 709C836.159 700.682 838.857 690.714 844 683C846.995 691.984 853.438 700.627 855 710C847.188 711.302 851 717.762 851 724L866 724L878 724C879.023 724 882.183 724.545 883 724C884.137 723.242 885.257 714.156 885 713C884.87 712.416 882.518 710.346 882 710C880.733 709.155 878.178 708.942 877 708C874.438 705.951 873.352 701.703 872 699C869.25 693.499 865.724 688.448 863 683C862.184 681.369 857.821 676.611 858 675L860 674C860.848 672.021 861.859 670.956 863 669C866.121 663.65 869.791 658.501 873 653C874.213 650.921 874.504 648.664 877 647C878.891 645.74 883.679 644.981 885 643C886.044 641.435 884.267 639.069 884 638C883.49 635.96 884 633.113 884 631L852 631C852 634.106 849.35 640.25 851 643C851.923 644.539 855.47 645.49 857 646C854.738 652.786 848 659.521 848 667C843.516 664.31 841.392 655.783 839 651C838.569 650.139 835.823 646.797 836 646C836.129 645.42 840.437 643.939 841 643C842.65 640.25 840 634.106 840 631L826 631L813 631C811.976 631 808.817 630.455 808 631C805.77 632.487 807.34 637.617 807 640L806 642C807.189 645.568 812.813 645.813 815 648C820.172 653.172 823.408 661.842 827 668C828.264 670.167 832.447 673.321 832 676C831.749 677.504 829.748 678.654 829 680C827.7 682.341 826.439 684.533 825 687C821.55 692.914 819.013 700.481 815 706C812.538 709.385 807.117 708.118 805 712C803.39 714.952 806 720.744 806 724M519 676C520.685 665.889 519 656.421 519 646C525.671 646 535.756 644.504 541 648C548.822 653.215 548.17 670.234 540 675C537.664 676.363 534.674 675.331 532 676C528.126 676.969 522.869 677.935 519 676M454 686C443.187 686 430.497 684.336 422 690C411.775 696.817 414.532 715.688 424 722C430.936 726.624 447.055 726.63 454 722C455.829 720.781 457.441 718.559 459 717C459 719.356 458.985 723.657 461 725C461.817 725.545 464.976 725 466 725C470.571 725 474.079 724.307 478 723C479.483 722.506 479.851 723.723 481 722C481.545 721.183 481 718.024 481 717C481 710.806 480.898 708 474 708C474 697.184 474.442 682.932 473 675C472.185 670.518 472.479 666.718 470 663C467.107 658.66 463.288 658.072 459 657C448.946 654.486 438.781 654.74 429 658C426.282 658.906 420.67 659.217 419 662C417.423 664.629 419.433 671.733 420 674C420.367 675.469 419.731 678.048 421 679C422.164 679.873 427.462 679 429 679C430.148 679 434.131 679.652 435 679C437.667 677 434.451 672.258 438 670C442.941 666.856 452.199 670.596 454 676C454.886 678.657 454 683.174 454 686M791 706C783.187 707.302 777.355 711.089 769 709C766.081 708.27 763.165 708.406 761 706C758.271 702.968 758.225 698.674 757 695L781 695C784.437 695 789.231 695.615 792 694C796.797 691.202 796 685.83 796 681C796 671.844 793.302 662.843 785 658C782.334 656.445 777.992 655.748 775 655C771.477 654.119 766.951 655.262 764 656C758.003 657.499 753.013 658.24 748 662C738.039 669.471 735.112 686.447 738 698C738.392 699.569 737.608 701.431 738 703C739.212 707.849 742.057 714.451 746 718C755.095 726.185 771.502 726.833 783 723C786.249 721.917 792.031 721.61 794 718C795.578 715.107 791.83 708.49 791 706M577 656C576.594 658.437 574.371 665.286 576 668C577.812 671.019 583.132 670.598 585 673L585 675C587.278 678.987 588.27 682.847 590 687C594.36 697.464 599.64 707.537 604 718C606.821 724.771 606.015 728.977 602 735C600.198 737.704 599.695 739 596 739C596 736.878 596.07 732.604 595 731C594.069 729.603 583.583 728.945 582 730C580.277 731.149 581.494 731.517 581 733C580.018 735.945 576.985 743.306 579 747C580.549 749.839 584.481 750.16 587 751C596.094 754.031 607.042 751.944 613 744C617.827 737.563 619.977 729.255 623 722C628.573 708.626 634.428 695.372 640 682C641.098 679.365 642.72 673.824 645 672C646.945 670.444 651.571 670.382 653 668C654.759 665.068 652 659.05 652 656L630 656C628.462 656 623.164 655.127 622 656C620.605 657.046 621.144 660.276 621 662C620.864 663.635 619.357 665.457 620 667C621.141 669.738 624.671 670.612 627 671C625.053 682.683 617 692.528 617 705C613.327 702.796 614.306 698.918 613 695C610.31 686.931 606.699 679.097 604 671C609.788 669.071 609.424 667.092 609 662C608.842 660.106 609.812 657.208 608 656C606.68 655.12 601.656 656 600 656L577 656M778 682L757 683C758.253 679.242 758.352 673.653 762 671C766.293 667.878 775.814 668.752 778 674C778.795 675.907 778 679.904 778 682M454 696C454 698.645 455.316 705.806 454 708C452.932 709.781 450.644 709.452 449 710C446.073 710.975 440.855 712.077 438 710C435.945 708.506 434.735 702.529 436 700C437.339 697.322 441.591 696.241 444 696L445 697C446.99 696.005 450.591 696 454 696z"/>
</svg>
